app/img/icons/ic--dryer.svg

<svg xmlns="http://www.w3.org/2000/svg" preserveAspectRatio="xMidYMid" width="30" height="31" viewBox="0 0 30 31"><defs><style>.cls-1{fill:#fff;fill-rule:evenodd}</style></defs><path d="M28.46 1.789l-4.924 1.655a279.315 279.315 0 0 0-5.53-1.57A166.742 166.742 0 0 0 12.058.411a10.055 10.055 0 0 0-2.826-.424c-5.055 0-9.241 3.919-9.241 8.692 0 3.149 1.844 6.074 4.776 7.591l-1.884 8.545c-.23 1.048.483 2.079 1.597 2.287l1.483.285a3.136 3.136 0 0 1-.868 1.378 3.452 3.452 0 0 1-2.392.939c-.385 0-.689.301-.689.639 0 .37.304.662.689.662 1.31 0 2.506-.5 3.366-1.316a4.47 4.47 0 0 0 1.254-2.041l2.122.393.016.008c1.09.208 2.188-.446 2.434-1.486v-.023l.057-.3c.189-.855-.27-1.748-1.131-2.117l1.533-6.952c1.941-.469 5.587-1.563 8.265-2.387 1.426-.439 2.515-.785 2.843-.885l4.932 1.64c.14.069.286.1.451.1.638 0 1.155-.501 1.155-1.102V2.813c0-.724-.787-1.263-1.54-1.024zm-5.571 10.054c-.656.17-1.713.493-2.966.878-3.039.908-7.291 2.202-8.774 2.487-.5.084-.844.476-.918.938l-1.876 8.531c-.089.393.066.777.361 1.016l-1.287-.239c-.827-.153-1.63-.308-2.252-.408l2.015-9.161c.106-.524-.181-1.001-.68-1.201-2.532-1.024-4.211-3.41-4.211-6.005 0-3.565 3.138-6.505 6.931-6.505.737 0 1.466.1 2.154.316l.098.03c1.934.423 3.916.924 5.9 1.447 1.933.509 3.751 1.04 5.505 1.548v6.328zm4.801 1.178l-3.409-1.154V5.5l3.409-1.132v8.653zM9.273 3.767c-1.385 0-2.647.509-3.548 1.363-.892.87-1.466 2.032-1.466 3.333 0 1.302.574 2.48 1.466 3.334.901.855 2.163 1.378 3.548 1.378a5.178 5.178 0 0 0 3.555-1.378c.893-.854 1.458-2.032 1.458-3.334 0-1.301-.565-2.463-1.458-3.333-.917-.854-2.162-1.363-3.555-1.363zm2.572 7.106a3.81 3.81 0 0 1-2.572.994 3.774 3.774 0 0 1-2.564-.994 3.277 3.277 0 0 1-1.065-2.41c0-.938.409-1.793 1.065-2.409a3.773 3.773 0 0 1 2.564-.993c.999 0 1.909.385 2.572.993.655.616 1.066 1.471 1.066 2.409 0 .947-.411 1.802-1.066 2.41z" class="cls-1"/></svg>

<svg xmlns="http://www.w3.org/2000/svg" xmlns:xlink="http://www.w3.org/1999/xlink" preserveAspectRatio="xMidYMid" width="30" height="31" viewBox="0 0 30 31">
  <defs>
    <style>
      .cls-1 {
        fill: #fff;
        fill-rule: evenodd;
      }
    </style>
  </defs>
  <path d="M28.460,1.789 L23.536,3.444 C21.676,2.898 19.792,2.358 18.006,1.874 C16.024,1.350 14.041,0.858 12.058,0.411 C11.149,0.142 10.182,-0.013 9.232,-0.013 C4.177,-0.013 -0.009,3.906 -0.009,8.679 C-0.009,11.828 1.835,14.753 4.767,16.270 L2.883,24.815 C2.653,25.863 3.366,26.894 4.480,27.102 L5.963,27.387 C5.799,27.918 5.496,28.396 5.095,28.765 C4.480,29.350 3.637,29.704 2.703,29.704 C2.318,29.704 2.014,30.005 2.014,30.343 C2.014,30.713 2.318,31.005 2.703,31.005 C4.013,31.005 5.209,30.505 6.069,29.689 C6.659,29.135 7.102,28.434 7.323,27.648 L9.445,28.041 L9.461,28.049 C10.551,28.257 11.649,27.603 11.895,26.563 L11.895,26.540 L11.952,26.240 C12.141,25.385 11.682,24.492 10.821,24.123 L12.354,17.171 C14.295,16.702 17.941,15.608 20.619,14.784 C22.045,14.345 23.134,13.999 23.462,13.899 L28.394,15.539 C28.534,15.608 28.680,15.639 28.845,15.639 C29.483,15.639 30.000,15.138 30.000,14.537 L30.000,2.813 C30.000,2.089 29.213,1.550 28.460,1.789 L28.460,1.789 ZM22.889,11.843 L22.889,11.843 C22.233,12.013 21.176,12.336 19.923,12.721 C16.884,13.629 12.632,14.923 11.149,15.208 C10.649,15.292 10.305,15.684 10.231,16.146 L8.355,24.677 C8.266,25.070 8.421,25.454 8.716,25.693 L7.429,25.454 C6.602,25.301 5.799,25.146 5.177,25.046 L7.192,15.885 C7.298,15.361 7.011,14.884 6.512,14.684 C3.980,13.660 2.301,11.274 2.301,8.679 C2.301,5.114 5.439,2.174 9.232,2.174 C9.969,2.174 10.698,2.274 11.386,2.490 L11.484,2.520 C13.418,2.943 15.400,3.444 17.384,3.967 C19.317,4.476 21.135,5.007 22.889,5.515 L22.889,11.843 L22.889,11.843 ZM27.690,13.021 L27.690,13.021 L24.281,11.867 L24.281,5.500 L27.690,4.368 L27.690,13.021 L27.690,13.021 ZM9.273,3.767 L9.273,3.767 C7.888,3.767 6.626,4.276 5.725,5.130 C4.833,6.000 4.259,7.162 4.259,8.463 C4.259,9.765 4.833,10.943 5.725,11.797 C6.626,12.652 7.888,13.175 9.273,13.175 C10.666,13.175 11.911,12.652 12.828,11.797 C13.721,10.943 14.286,9.765 14.286,8.463 C14.286,7.162 13.721,6.000 12.828,5.130 C11.911,4.276 10.666,3.767 9.273,3.767 L9.273,3.767 ZM11.845,10.873 L11.845,10.873 C11.182,11.481 10.272,11.867 9.273,11.867 C8.266,11.867 7.372,11.481 6.709,10.873 C6.053,10.265 5.644,9.410 5.644,8.463 C5.644,7.525 6.053,6.670 6.709,6.054 C7.372,5.446 8.266,5.061 9.273,5.061 C10.272,5.061 11.182,5.446 11.845,6.054 C12.500,6.670 12.911,7.525 12.911,8.463 C12.911,9.410 12.500,10.265 11.845,10.873 L11.845,10.873 Z" class="cls-1"/>
</svg>
